X: 20972
T: LABITSKY'S AURORA WALTZES.
T: Waltz, No. 1.
Q: "Allegretto."
%R: waltz
B: W. Hamilton "Universal Tune-Book" Vol. 2 Glasgow 1846 p.97 #2
S: http://s3-eu-west-1.amazonaws.com/itma.dl.printmaterial/book_pdfs/hamiltonvol2web.pdf
Z: 2016 John Chambers <jc:trillian.mit.edu>
M: 3/4
L: 1/4
K: G
% - - - - - - - - - - - - - - - - - - - - - - - - -
|:\
!p!(gfA) | c3 | (edG) | B3 |\
{Bc}B>AD | {Bc}B>AD | D2G- | GBd |\
gfA | c3 | edG | B3 | {Bc}B>AD |\
{Bc}B>AD |[1 G3- | GBd :|[2 (D3 | G)z"_>"b |]
bB/z/"_>"b- | bB/z/"_>"b- | bB/z/"_>"b- | bB/z/b |\
b3- | baf | a3- | agd |\
bB/z/b- | bB/z/b- | bB/z/b- | bB/z/b |\
[e'3-e3] | [e'e][d'd][bB] !p!| ([bB][aA][fF]) |[1 [gG]zd :|[2 gz2 |]
% - - - - - - - - - - - - - - - - - - - - - - - - -

%%sep 1 1 500
%%sep 1 1 500

